X:1
T:Stonewall Jackson's Way
M:6/8
L:1/8
K:E
 z4 z E| E2 EE-G B| e2 e e2 B| c2 c B2 G| F3- F z E| E2 EE-G B| e2 e e2 B|\
 c2 B A2 F| E3- E z c| c2 c c2 c| B2 B B2 e| d2 dd-c d| e2 B B2 B|\
 c2 c c2 c| B2 B B2 e| d2 dd-c d| e3- e z2|

